X:1
T:Title
L:1/8
Q:1/4=100
M:4/4
K:Ab
V:1 treble nm="Grand Piano"
V:1
 AA/A/ GF/F/ FF FF/G/ | AA/G/ BA G4 | BBBA GGGG | AB cB/d/ c3 B | d>c BA G3 B- | B/BB/ AB c3 B/B/ | %6
w: ????~?????~??? * * * * * * * * * *||||||
 d>c BA/A/ B>A Gc | c>B AG F4 | CAGF FF/F/ FF | FF/F/ =EF G4 | CBBA GGGG | FG/G/ AB/B/ c3 B | %12
w: ||||||
 d>c BA c>B AG | B>A G/G/F G3 G | F>G AB c>c cB | BBed c/d/c/B/ c2 |] %16
w: ||||

